!!!COM: Bach, Johann Sebastian
!!!OTL: Sinfonia No. 10; in G major; BWV 796
!! Three-part sinfonia
!! Bach-Gesellschaft edition, pp.32-33
!! Performance duration: 1:04; performance tempo: 92.8 quarter-notes per minute.
!! (Andras Schiff, piano, "Two-Part Inventions BWV 772a-786; Three-part
!! Inventions BWV 787-801" Decca 411 974-2)
**kern	**kern	**kern
*staff2	*staff1	*staff1
*M3/4	*M3/4	*M3/4
*MM92.8	*MM92.8	*MM92.8
*G:	*G:	*G:
=1	=1	=1
4GG	2.r	8r
.	.	8.g
4BB	.	.
.	.	16f#
.	.	16g
.	.	16a
4GG	.	16b
.	.	16cc
.	.	16dd
.	.	16b
=2	=2	=2
4C	2.r	16ee
.	.	16dd
.	.	16cc
.	.	16b
4D	.	16a
.	.	16g
.	.	16f#
.	.	16e
4DD	.	16d
.	.	16cc
.	.	16b
.	.	16a
=3	=3	=3
4GG	8r	[4b
.	8.d	.
4G	.	16b]
.	16c#	16a
.	16d	16b
.	16e	16cc#
4F#	16f#	[4dd
.	16g	.
.	16a	.
.	16f#	.
=4	=4	=4
4G	16b	2dd]
.	16a	.
.	16g	.
.	16f#	.
4A	16e	.
.	16d	.
.	16c#	.
.	16B	.
4AA	16A	4cc#
.	16g	.
.	16f#	.
.	16e	.
=5	=5	=5
4D	16f#	[4dd
.	16A	.
.	16B	.
.	16c#	.
4r	16d	16dd]
.	16e	16cc#
.	16f#	16dd
.	16g	16ee
4r	16a	16ff#
.	16b	16gg
.	16ccn	16aa
.	16a	16ff#
=6	=6	=6
2.r	8dd	16bb
.	.	16aa
.	8b	16gg
.	.	16ff#
.	8g	16ee
.	.	16dd
.	8e	16cc
.	.	16b
.	[4cc	16a
.	.	16gg
.	.	16ff#
.	.	16ee
=7	=7	=7
8r	16cc]	[4dd
.	16cc	.
8.G	16b	.
.	16a	.
.	[4b	16dd]
16F#	.	16dd
16G	.	16ee
16A	.	16ff#
16B	16b]	[4gg
16c	16a	.
16d	16b	.
16B	16g	.
=8	=8	=8
16e	[2cc	8gg]
16d	.	.
16c	.	8ee
16B	.	.
16A	.	8cc
16G	.	.
16F#	.	8a
16E	.	.
16D	16cc]	[4ff#
16c	16ee	.
16B	16dd	.
16A	16cc	.
=9	=9	=9
16d	[2b	8ff#]
16c	.	.
16B	.	8dd
16A	.	.
16G	.	8b
16F#	.	.
16E	.	8g
16D	.	.
16C	16b]	[4ee
16B	16dd	.
16A	16cc	.
16G	16b	.
=10	=10	=10
16c	[2a	8ee]
16B	.	.
16A	.	8cc
16G	.	.
16F#	.	8a
16E	.	.
16D#	.	8f#
16C#	.	.
16BB	16a]	4dd#
16A	16cc	.
16G	16b	.
16F#	16a	.
=11	=11	=11
8.E	16g	4ee
.	16a	.
.	16g	.
16D#	16f#	.
16E	16e	4r
16F#	16d#	.
16G	16e	.
16A	16f#	.
8B	16g	[4ee
.	16a	.
8E	16b	.
.	16g	.
=12	=12	=12
8A	16cc	4ee]
.	16b	.
8F#	16a	.
.	16g	.
4.B	16f#	8dd
.	16e	.
.	16d	8cc
.	16c	.
.	16B	[4dd
.	16a	.
8A	16g#	.
.	16f#	.
=13	=13	=13
8G#	2.e	16dd]
.	.	16dd
16A	.	16cc
16B	.	16b
8c	.	16a
.	.	16g#
8B	.	16a
.	.	16b
8A	.	16cc
.	.	16dd
[8c	.	16ee
.	.	16cc
=14	=14	=14
8c]	2.d	16ffn
.	.	16ee
16B	.	16dd
16A	.	16cc
8G#	.	16b
.	.	16a
8B	.	16g#
.	.	16f#
8G#	.	16e
.	.	16dd
8E	.	16cc
.	.	16b
=15	=15	=15
8F#	8c	16a
.	.	16g#
8G#	8B	16a
.	.	16b
8A	8A	16cc
.	.	16dd
8D#	8c	16ee
.	.	16ff#
8E	8B	16ggn
.	.	16aa
8Gn	[8e	16bb
.	.	16gg
=16	=16	=16
[2A	8e]	16ccc
.	.	16bb
.	8c	16aa
.	.	16gg
.	8A	16ff#
.	.	16ee
.	8F#	16dd#
.	.	16cc#
16A]	[4d#	16b
16c	.	16aa
16B	.	16gg
16A	.	16ff#
=17	=17	=17
[2G	8d#]	16bb
.	.	16aa
.	8B	16gg
.	.	16ff#
.	8G	16ee
.	.	16ddn
.	8E	16cc#
.	.	16b
16G]	[4c#	16a
16B	.	16gg
16A	.	16ff#
16G	.	16ee
=18	=18	=18
[2F#	8c#]	16aa
.	.	16gg
.	8A	16ff#
.	.	16ee
.	8F#	16dd
.	.	16cc#
.	8D	16b
.	.	16a
16F#]	[4B	16g
16A	.	16ff#
16G	.	16ee
16F#	.	16dd
=19	=19	=19
[2E	8B]	16gg
.	.	16ff#
.	8G	16ee
.	.	16dd
.	8E	16cc#
.	.	16b
.	8C#	16a#
.	.	16g#
16E]	4A#	16f#
16G	.	16ee
16F#	.	16dd
16E	.	16cc#
=20	=20	=20
4D	[4B	16ff#
.	.	16ee
.	.	16dd
.	.	16cc#
4G	16B]	[2b
.	16A#	.
.	16B	.
.	16c#	.
4F#	16d	.
.	16e	.
.	16f#	.
.	16d	.
=21	=21	=21
4E	16g	2b]
.	16f#	.
.	16e	.
.	16d	.
4F#	16c#	.
.	16B	.
.	16A#	.
.	16G#	.
4FF#	16F#	4a#
.	16e	.
.	16d	.
.	16c#	.
=22	=22	=22
[4BB	16d	{4b
.	16f#	.
.	16g#	.
.	16a#	.
16BB]	8b	8dd}
16AAn	.	.
16BB	8ccn	8ee
16Cn	.	.
16D	8b	8dd
16E	.	.
16Fn	8an	8cc
16C	.	.
=23	=23	=23
16D	2.g#	8b
16E	.	.
16D	.	8ffn
16C	.	.
16BB	.	8ee
16AA	.	.
16GG#	.	8dd
16FF#	.	.
16EE	.	8cc
16D	.	.
16C	.	8b
16BB	.	.
=24	=24	=24
[4AA	16r	[4cc
.	16e	.
.	16f#	.
.	16g#	.
16AA]	8a	8cc]
16GGn	.	.
16AA	8b	8dd
16BB	.	.
16C	8a	8cc
16D	.	.
16E	8gn	8b
16BB	.	.
=25	=25	=25
16C	2.f#	8a
16D	.	.
16C	.	8ee
16BB	.	.
16AA	.	8dd
16GG	.	.
16FF#	.	8cc
16EE	.	.
16DD	.	8b
16C	.	.
16BB	.	8a
16AA	.	.
=26	=26	=26
8GG	16r	4b
.	16d	.
8BB	16e	.
.	16f#	.
8D	16g	4r
.	16f#	.
8F#	16g	.
.	16a	.
8G	16b	[4gg
.	16cc	.
8B	16dd	.
.	16b	.
=27	=27	=27
8c	16ee	4gg_
.	16dd	.
8A	16cc	.
.	16b	.
[4d	16a	16gg]
.	16g	16bb
.	16f#	16aa
.	16e	16gg
16d]	16d	4ff#
16e	16cc	.
16d	16b	.
16c	16a	.
=28	=28	=28
8B	16dd	[4ffn
.	16cc	.
8G	16b	.
.	16a	.
[4c	16g	16ff]
.	16fn	16aa
.	16e	16gg
.	16d	16ff
16c]	16c	[4ee
16d	16b	.
16c	16a	.
16B	16g	.
=29	=29	=29
8A	16cc	4ee_
.	16b	.
8F#	16a	.
.	16g	.
[4B	16f#	16ee]
.	16e	16gg
.	16d	16ff#
.	16c	16ee
16B]	16B	[4dd
16c	16a	.
16B	16g	.
16A	16f#	.
=30	=30	=30
8G	16b	4dd_
.	16a	.
8E	16g	.
.	16f#	.
[4A	16e	16dd]
.	16d	16ffn
.	16c	16ee
.	16B	16dd
16A]	16A	[4cc
16B	16g	.
16A	16f#	.
16G	16e	.
=31	=31	=31
16F#	4d	16cc]
16E	.	16cc
16D	.	16b
16C	.	16a
16BB	4r	16g
16AA	.	16f#
16GG	.	16g
16FF#	.	16a
16GG	[4g	16b
16AA	.	16cc
16BB	.	16dd
16GG	.	16b
=32	=32	=32
16C	2g]	16ee
16AA	.	16dd
16BB	.	16cc
16C	.	16b
8D	.	16a
.	.	16g
8C	.	16f#
.	.	16e
8D	4d	16f#
.	.	16cc
8DD	.	16b
.	.	16a
=33	=33	=33
2.GG;	2.g;	2.b;
====	====	====
*-	*-	*-
